X:1
T:Title
%%score { 1 | 2 }
L:1/8
Q:1/4=100
M:5/4
K:F
V:1 treble nm="Grand Piano"
V:2 bass 
V:1
 CD F2 [EG]2 A2 c2 | CD F2 [CEG]2 [CFA]4 | [B,FB][CFA] [DFG]2 [CFA]2 [B,G]2 [A,F]2 | %3
w: Hubert~P.~Main * * * * *|||
 [DFA][CFA] [=B,FG]2 [Fd]2 [Ec]4 | [EG][EA] [EB]2 [Ec]2 [GB]2 [FA]2 | %5
w: ||
 [=B,E][DF] [EG]2 [A,EA]2 [A,F]4 |[M:11/8] [A,_EF][A,EF] [B,DF]2 [DFG]2 [CFA]2 [CFA]3 | %7
w: ||
[M:5/4] [CFc][CFA] [A,DF]2 [B,EG]2 [A,F]4[Q:1/4=98][Q:1/4=97][Q:1/4=95][Q:1/4=94][Q:1/4=92][Q:1/4=91][Q:1/4=89][Q:1/4=88][Q:1/4=86][Q:1/4=84][Q:1/4=83][Q:1/4=81][Q:1/4=80][Q:1/4=78][Q:1/4=77] |] %8
w: |
V:2
 [F,A,][F,B,] [F,A,C]2 [C,C]2 [F,CF]2 [F,A,F]2 | [F,A,][F,B,] [F,A,C]2 C,2 F,4 | %2
 D,C, B,,2 C,2 ^C,2 D,2 | D,D, G,2 [G,=B,]2 [C,C]4 | [C,B,][C,A,] [C,G,]2 [C,C]2 [E,C]2 [F,C]2 | %5
 [A,,A,][A,,A,] [A,,A,]2 ^C,2 D,4 |[M:11/8] C,C, B,,2 B,,2 F,2 F,3 |[M:5/4] A,,A,, D,2 C,2 F,4 |] %8

